web/themes/custom/subsites/bellcom_theme/assets/images/menuboard.svg

<svg width="50" height="50" viewBox="0 0 62 77" fill="none" xmlns="http://www.w3.org/2000/svg">
<path d="M56.6525 21.6883L47.9467 65.097C47.6445 66.6668 46.9235 68.0634 45.901 69.0596C44.8784 70.0557 43.6146 70.5927 42.315 70.5833H8.36999C4.46915 70.5833 1.67915 65.835 2.84165 61.1829L13.7175 17.8062C14.0809 16.3352 14.8133 15.0469 15.8078 14.1292C16.8023 13.2115 18.0069 12.7125 19.2458 12.705H51.0208C53.475 12.705 55.5158 14.5658 56.3683 17.1325C56.8592 18.512 56.9625 20.0841 56.6525 21.6883Z" stroke="black" stroke-width="1.5" stroke-miterlimit="10"/>
<path d="M41.3334 70.5833H53.6817C57.0142 70.5833 59.6234 67.0862 59.3909 62.9475L56.8334 19.2499M25.0067 20.4691L27.6934 6.60911M42.315 20.5012L44.7434 6.57703M19.8917 38.4999H40.5584M17.3083 51.3333H37.975" stroke="black" stroke-width="1.5" stroke-miterlimit="10" stroke-linecap="round" stroke-linejoin="round"/>
</svg>

<svg width="50" height="50" viewBox="0 0 62 77" fill="none" xmlns="http://www.w3.org/2000/svg"><path d="M56.653 21.688l-8.706 43.409c-.303 1.57-1.024 2.966-2.046 3.963-1.023.996-2.286 1.533-3.586 1.523H8.37c-3.9 0-6.69-4.748-5.528-9.4l10.875-43.377c.364-1.47 1.096-2.76 2.09-3.677.995-.918 2.2-1.416 3.439-1.424H51.02c2.454 0 4.495 1.86 5.347 4.428.491 1.379.594 2.951.285 4.555z" stroke="#000" stroke-width="1.5" stroke-miterlimit="10"/><path d="M41.333 70.583h12.349c3.332 0 5.941-3.497 5.709-7.636L56.833 19.25m-31.826 1.22l2.686-13.86M42.315 20.5l2.428-13.924M19.892 38.5h20.666m-23.25 12.833h20.667" stroke="#000" stroke-width="1.5" stroke-miterlimit="10" stroke-linecap="round" stroke-linejoin="round"/></svg>
